image/box-icons-item4.svg

<svg fill="none" height="45" viewBox="0 0 48 45" width="48" xmlns="http://www.w3.org/2000/svg"><g fill="#4b4b4b"><path clip-rule="evenodd" d="m17.6331 1.31671c3.709-1.755614 7.8822-1.755612 11.5912 0l15.2941 7.2392c2.4052 1.13848 3.4816 3.61079 3.4816 5.86719 0 2.2565-1.0764 4.7288-3.4817 5.8672l-3.3758 1.598v11.2858c0 2.8916-1.436 5.6835-4.0502 7.1451-1.7182.9607-3.9762 2.1173-6.3524 3.0376-2.3482.9096-4.9483 1.6432-7.3115 1.6432s-4.9634-.7336-7.3116-1.6432c-2.3762-.9203-4.6341-2.0769-6.35235-3.0376-2.61421-1.4616-4.05021-4.2535-4.05021-7.1451v-11.8279c0-.0957.00768-.1895.02245-.2809-.05378-.3324-.01221-.6841.1401-1.0121.40189-.8655 1.42261-1.2382 2.27985-.8325l10.93206 5.1745c2.7869 1.3192 5.8935 1.3192 8.6804 0l15.2939-7.239c.9215-.4362 1.5085-1.4768 1.5085-2.7331s-.587-2.2968-1.5085-2.733l-15.2941-7.2392c-2.7869-1.31915-5.8935-1.31915-8.6804 0l-15.29387 7.2391c-.85723.4058-1.87796.0331-2.27985-.8324-.40189-.86549-.03276-1.89603.82448-2.30179zm-8.49032 22.19389v9.6635c0 1.7607.86572 3.3247 2.28272 4.117 1.638.9158 3.7442 1.9913 5.9194 2.8339 2.2031.8533 4.3415 1.4135 6.0835 1.4135 1.7419 0 3.8803-.5602 6.0835-1.4135 2.1752-.8426 4.2813-1.9181 5.9194-2.8339 1.4169-.7923 2.2826-2.3563 2.2826-4.117v-9.663l-8.4894 4.0183c-3.709 1.7557-7.8822 1.7557-11.5912 0z" fill-rule="evenodd"/><path d="m11.2899 12.5874c.3729.8786-.0302 1.8961-.9004 2.2727l-2.45868 1.0638c-1.37775.5962-2.2855.9915-2.95258 1.3704-.63081.3583-.90412.6259-1.07782.8919-.17369.2659-.30971.625-.3874 1.3515-.08216.7683-.08447 1.7664-.08447 3.2798v6.6056c0 .9559-.76751 1.7307-1.71427 1.7307-.946769 0-1.71427816-.7748-1.71427816-1.7307v-6.6952c-.00004469-1.3996-.00008256-2.5858.10428516-3.5617.111057-1.0385.352542-1.9955.933853-2.8856.58131-.89 1.35738-1.4911 2.25906-2.0032.84738-.4813 1.92719-.9485 3.20136-1.4998l2.54036-1.0992c.87021-.3765 1.87798.0305 2.25098.909z"/></g></svg>

<svg width="48" height="45" viewBox="0 0 48 45" fill="none" xmlns="http://www.w3.org/2000/svg">
<path fill-rule="evenodd" clip-rule="evenodd" d="M17.6331 1.31671C21.3421 -0.438904 25.5153 -0.438902 29.2243 1.31671L44.5184 8.55591C46.9236 9.69439 48 12.1667 48 14.4231C48 16.6796 46.9236 19.1519 44.5183 20.2903L41.1425 21.8883V33.1741C41.1425 36.0657 39.7065 38.8576 37.0923 40.3192C35.3741 41.2799 33.1161 42.4365 30.7399 43.3568C28.3917 44.2664 25.7916 45 23.4284 45C21.0652 45 18.465 44.2664 16.1168 43.3568C13.7406 42.4365 11.4827 41.2799 9.76445 40.3192C7.15024 38.8576 5.71424 36.0657 5.71424 33.1741V21.3462C5.71424 21.2505 5.72192 21.1567 5.73669 21.0653C5.68291 20.7329 5.72448 20.3812 5.87679 20.0532C6.27868 19.1877 7.2994 18.815 8.15664 19.2207L19.0887 24.3952C21.8756 25.7144 24.9822 25.7144 27.7691 24.3952L43.063 17.1562C43.9845 16.72 44.5715 15.6794 44.5715 14.4231C44.5715 13.1668 43.9845 12.1263 43.063 11.6901L27.7689 4.4509C24.982 3.13175 21.8754 3.13175 19.0885 4.4509L3.79463 11.69C2.9374 12.0958 1.91667 11.7231 1.51478 10.8576C1.11289 9.99211 1.48202 8.96157 2.33926 8.55581L17.6331 1.31671ZM9.14278 23.5106V33.1741C9.14278 34.9348 10.0085 36.4988 11.4255 37.2911C13.0635 38.2069 15.1697 39.2824 17.3449 40.125C19.548 40.9783 21.6864 41.5385 23.4284 41.5385C25.1703 41.5385 27.3087 40.9783 29.5119 40.125C31.6871 39.2824 33.7932 38.2069 35.4313 37.2911C36.8482 36.4988 37.7139 34.9348 37.7139 33.1741V23.5111L29.2245 27.5294C25.5155 29.2851 21.3423 29.2851 17.6333 27.5294L9.14278 23.5106Z" fill="#4B4B4B"/>
<path d="M11.2899 12.5874C11.6628 13.466 11.2597 14.4835 10.3895 14.8601L7.93082 15.9239C6.55307 16.5201 5.64532 16.9154 4.97824 17.2943C4.34743 17.6526 4.07412 17.9202 3.90042 18.1862C3.72673 18.4521 3.59071 18.8112 3.51302 19.5377C3.43086 20.306 3.42855 21.3041 3.42855 22.8175V29.4231C3.42855 30.379 2.66104 31.1538 1.71428 31.1538C0.767511 31.1538 1.84038e-06 30.379 1.84038e-06 29.4231V22.7279C-4.28472e-05 21.3283 -8.0721e-05 20.1421 0.104287 19.1662C0.215344 18.1277 0.456829 17.1707 1.03814 16.2806C1.61945 15.3906 2.39552 14.7895 3.2972 14.2774C4.14458 13.7961 5.22439 13.3289 6.49856 12.7776L9.03892 11.6784C9.90913 11.3019 10.9169 11.7089 11.2899 12.5874Z" fill="#4B4B4B"/>
</svg>
